._scraped/app.urodapter.com/img/success_icon.svg

<svg fill="none" height="43" viewBox="0 0 42 43" width="42" xmlns="http://www.w3.org/2000/svg"><path d="m41 19.66v1.84c-.0025 4.3128-1.399 8.5093-3.9813 11.9636-2.5824 3.4543-6.2121 5.9813-10.348 7.2042-4.1358 1.2228-8.5562 1.076-12.6018-.4187-4.0455-1.4946-7.49959-4.2569-9.84698-7.875s-3.462338-7.898-3.17857-12.2015c.28377-4.3035 1.95106-8.4 4.75321-11.67848 2.80215-3.27851 6.58904-5.56338 10.79584-6.51386 4.2068-.95047 8.6081-.51561 12.5476 1.23971m11.86 2.28-20 20.02003-6-6" stroke="#072c3f" stroke-linecap="round" stroke-linejoin="round" stroke-width="2"/></svg>

<svg width="42" height="43" viewBox="0 0 42 43" fill="none" xmlns="http://www.w3.org/2000/svg">
<path d="M41 19.66V21.5C40.9975 25.8128 39.601 30.0093 37.0187 33.4636C34.4363 36.9179 30.8066 39.4449 26.6707 40.6678C22.5349 41.8906 18.1145 41.7438 14.0689 40.2491C10.0234 38.7545 6.56931 35.9922 4.22192 32.3741C1.87453 28.756 0.759582 24.4761 1.04335 20.1726C1.32712 15.8691 2.99441 11.7726 5.79656 8.49412C8.59871 5.21561 12.3856 2.93074 16.5924 1.98026C20.7992 1.02979 25.2005 1.46465 29.14 3.21997M41 5.49997L21 25.52L15 19.52" stroke="#072C3F" stroke-width="2" stroke-linecap="round" stroke-linejoin="round"/>
</svg>
